images/se-s-icon.svg

<svg width="24" height="24" viewBox="0 0 24 24" fill="none" xmlns="http://www.w3.org/2000/svg">
    <path d="M12.0909 6.09091C9.75325 5.83117 5.63441 8.25298 7.54547 12.7792C8.77922 15.7013 9.36364 16.1558 9.62338 18.6234L11.961 18.5584M9.49351 20.3766H14.4935M10.6623 22H13.0649M18.5844 10.5714H20.9221M16.5714 5.83117L18.1948 4.20779M11.8312 4.20779V2M7.28571 5.83117L5.66234 4.20779M5.27273 10.5714H3" stroke="#2A7DEC" stroke-width="1.5" stroke-linecap="round" stroke-linejoin="round"/>
    <path fill-rule="evenodd" clip-rule="evenodd" d="M12.0001 7H13.028C13.1565 7 13.2583 7.08854 13.2797 7.21354L13.4724 8.53646C13.7883 8.66146 14.0775 8.83333 14.3398 9.02604L15.6195 8.52604C15.7373 8.48437 15.8711 8.52604 15.9354 8.64062L16.9581 10.3698C17.0223 10.4792 17.0009 10.6146 16.8938 10.6875L15.8069 11.5104C15.8337 11.6667 15.8551 11.8385 15.8551 12C15.8551 12.1615 15.8444 12.3333 15.8176 12.4896L16.9045 13.3125C16.9513 13.3501 16.9834 13.4022 16.9951 13.4602C17.0068 13.5181 16.9975 13.5782 16.9688 13.6302L15.9407 15.3594C15.8765 15.474 15.7426 15.5104 15.6248 15.474L14.3452 14.974C14.0775 15.1719 13.7937 15.3385 13.4778 15.4635L13.285 16.7865C13.2583 16.9115 13.1565 17 13.028 17H12.0001V13.875C13.0602 13.875 13.9275 13.0312 13.9275 12C13.9275 10.9688 13.0602 10.125 12.0001 10.125V7Z" fill="#D4E5FB"/>
</svg>

<svg width="24" height="24" fill="none" xmlns="http://www.w3.org/2000/svg"><path d="M12.09 6.09c-2.337-.259-6.456 2.163-4.545 6.69 1.234 2.921 1.819 3.376 2.078 5.843l2.338-.065m-2.467 1.819h5M10.662 22h2.403m5.52-11.429h2.337m-4.35-4.74 1.623-1.623m-6.364 0V2M7.286 5.831 5.662 4.208m-.39 6.363H3" stroke="#2A7DEC" stroke-width="1.5" stroke-linecap="round" stroke-linejoin="round"/><path fill-rule="evenodd" clip-rule="evenodd" d="M12 7h1.028c.128 0 .23.089.252.214l.192 1.322c.316.125.606.297.868.49l1.28-.5a.259.259 0 0 1 .315.115l1.023 1.729c.064.11.043.245-.064.318l-1.087.822c.027.157.048.329.048.49 0 .162-.01.333-.037.49l1.086.822a.25.25 0 0 1 .064.318l-1.027 1.73c-.065.114-.198.15-.316.114l-1.28-.5a3.81 3.81 0 0 1-.867.49l-.193 1.322a.261.261 0 0 1-.257.214H12v-3.125c1.06 0 1.928-.844 1.928-1.875 0-1.031-.868-1.875-1.928-1.875V7Z" fill="#D4E5FB"/></svg>
